X:8
T:Jsus, verbe de Dieu, Kyrie - G323-1
T:Kyrie, Christe, Kyrie eleison
C:J. Berthier
M:C
L:1/4
Q:"Recueilli" 1/4=80
K:Cm
Syy"Dom"GG A2|BF G2|EE FE|DD C2||
[Q:"Trs lent"]zED2|ED/E/F2|GG/G/BB/B/|=A/A/A/A/G2Sy||
zGG2|GE/G/B2|EE/F/G=A/B/|=A/A/A/A/G2Sy||
zGG2|cG/=A/B2|BB/[B/c/][Bd][=A/c/][G/B/]|=A/A/A/A/G2Sy||
